SVG_Azure_All/DevOps Starter.svg

<?xml version="1.0" encoding="UTF-8" standalone="no"?>
<!-- Generated by Microsoft Visio, SVG Export DevOps Starter.svg Page-1 -->

<svg
   xmlns:dc="http://purl.org/dc/elements/1.1/"
   xmlns:cc="http://creativecommons.org/ns#"
   xmlns:rdf="http://www.w3.org/1999/02/22-rdf-syntax-ns#"
   xmlns:svg="http://www.w3.org/2000/svg"
   xmlns="http://www.w3.org/2000/svg"
   xmlns:sodipodi="http://sodipodi.sourceforge.net/DTD/sodipodi-0.dtd"
   xmlns:inkscape="http://www.inkscape.org/namespaces/inkscape"
   width="0.76598895in"
   height="0.70855862in"
   viewBox="0 0 55.151202 51.0164"
   xml:space="preserve"
   class="st7"
   version="1.1"
   id="svg70"
   sodipodi:docname="DevOps Starter.svg"
   style="font-size:12px;overflow:visible;color-interpolation-filters:sRGB;fill:none;fill-rule:evenodd;stroke-linecap:square;stroke-miterlimit:3"
   inkscape:version="0.92.5 (2060ec1f9f, 2020-04-08)"><metadata
   id="metadata74"><rdf:RDF><cc:Work
       rdf:about=""><dc:format>image/svg+xml</dc:format><dc:type
         rdf:resource="http://purl.org/dc/dcmitype/StillImage" /></cc:Work></rdf:RDF></metadata><sodipodi:namedview
   pagecolor="#ffffff"
   bordercolor="#666666"
   borderopacity="1"
   objecttolerance="10"
   gridtolerance="10"
   guidetolerance="10"
   inkscape:pageopacity="0"
   inkscape:pageshadow="2"
   inkscape:window-width="640"
   inkscape:window-height="480"
   id="namedview72"
   showgrid="false"
   inkscape:zoom="1.9362444"
   inkscape:cx="36.841064"
   inkscape:cy="15.582745"
   inkscape:window-x="0"
   inkscape:window-y="0"
   inkscape:window-maximized="0"
   inkscape:current-layer="svg70" />
	<style
   type="text/css"
   id="style2">
	<![CDATA[
		.st1 {fill:url(#grad0-6);stroke:none;stroke-linecap:butt;stroke-width:6.375}
		.st2 {fill:#ffffff;stroke:none;stroke-linecap:butt;stroke-width:6.375}
		.st3 {fill:url(#grad0-12);stroke:none;stroke-linecap:butt;stroke-width:6.375}
		.st4 {fill:#417be9;stroke:none;stroke-linecap:butt;stroke-width:6.375}
		.st5 {fill:#1453c8;stroke:none;stroke-linecap:butt;stroke-width:6.375}
		.st6 {fill:#88aef1;stroke:none;stroke-linecap:butt;stroke-width:6.375}
		.st7 {fill:none;fill-rule:evenodd;font-size:12px;overflow:visible;stroke-linecap:square;stroke-miterlimit:3}
	]]>
	</style>

	<defs
   id="Patterns_And_Gradients">
		<linearGradient
   id="grad0-6"
   x1="0.59381017"
   y1="64.385187"
   x2="46.361158"
   y2="64.385187"
   gradientTransform="scale(1.2050381,0.82984926)"
   gradientUnits="userSpaceOnUse">
			<stop
   offset="0"
   stop-color="#2889e0"
   stop-opacity="1"
   id="stop4" />
			<stop
   offset="1"
   stop-color="#50e6ff"
   stop-opacity="1"
   id="stop6" />
		</linearGradient>
		<linearGradient
   id="grad0-12"
   x1="0"
   y1="58.358746"
   x2="33.664248"
   y2="58.358746"
   gradientTransform="scale(1.006706,0.99333869)"
   gradientUnits="userSpaceOnUse">
			<stop
   offset="0"
   stop-color="#c398e9"
   stop-opacity="1"
   id="stop9" />
			<stop
   offset="1"
   stop-color="#704cb3"
   stop-opacity="1"
   id="stop11" />
		</linearGradient>
	</defs>
	<g
   id="g68"
   transform="translate(-6.3849756,-6.3779)">
		<title
   id="title15">Page-1</title>
		<g
   id="group5650-1"
   transform="translate(5.66929,-34.0157)">
			<title
   id="title17">DevOps Starter</title>
			<g
   id="group5651-2">
				<title
   id="title19">Sheet.5651</title>
				<g
   id="shape5652-3"
   transform="translate(0,-13.0364)">
					<title
   id="title21">Sheet.5652</title>
					<path
   d="m 55.79,81.12 c -1.69,6.07 -5.8,8.07 -10.23,9.93 -0.31,0.13 -1.03,0.36 -2.16,0.36 H 24.3 c -3.6,0 -9.09,-0.05 -11.64,-0.08 C 11.25,91.31 10.36,90.92 9.94,90.71 4.58,88.08 1.41,83.81 0.8,78.42 0.55,76.17 0,67.05 13.5,63.54 18,55.18 22.95,53.87 29.25,53.43 c 8.1,0 14.84,5.71 15.74,14.5 4.5,0.88 11.7,5.27 10.8,13.19 z"
   class="st1"
   id="path23"
   inkscape:connector-curvature="0"
   style="fill:url(#grad0-6);stroke:none;stroke-width:6.375;stroke-linecap:butt" />
				</g>
				<g
   id="shape5653-7"
   transform="translate(18.5265)">
					<title
   id="title26">Sheet.5653</title>
					<path
   d="m 33.89,74.69 c 0,9.24 -7.58,16.72 -16.94,16.72 C 7.59,91.41 0,83.93 0,74.69 0,65.45 7.59,57.97 16.95,57.97 c 9.35,0 16.94,7.48 16.94,16.72 z"
   class="st2"
   id="path28"
   inkscape:connector-curvature="0"
   style="fill:#ffffff;stroke:none;stroke-width:6.375;stroke-linecap:butt" />
				</g>
				<g
   id="shape5654-9"
   transform="translate(18.5265)">
					<title
   id="title31">Sheet.5654</title>
					<path
   d="m 16.95,89.21 c 8.12,0 14.71,-6.5 14.71,-14.52 0,-8.02 -6.59,-14.52 -14.71,-14.52 -8.13,0 -14.72,6.5 -14.72,14.52 0,8.02 6.59,14.52 14.72,14.52 z m 0,2.2 c 9.35,0 16.94,-7.48 16.94,-16.72 0,-9.24 -7.58,-16.72 -16.94,-16.72 C 7.59,57.97 0,65.45 0,74.69 0,83.93 7.59,91.41 16.95,91.41 Z"
   class="st3"
   id="path33"
   inkscape:connector-curvature="0"
   style="fill:url(#grad0-12);stroke:none;stroke-width:6.375;stroke-linecap:butt" />
				</g>
				<g
   id="shape5655-13"
   transform="translate(23.4105,-8.86293)">
					<title
   id="title36">Sheet.5655</title>
					<path
   d="m 18.34,80.59 c -1.93,0 -3.49,1.55 -3.49,3.47 0,1.11 -0.25,2.17 -0.7,3.12 -1.18,2.5 -3.75,4.23 -6.73,4.23 C 3.32,91.41 0,88.12 0,84.06 a 7.44576,7.34797 0 0 1 2.17,-5.2 7.39118,7.29411 0 0 1 4.36,-2.11 v 1.75 a 5.66418,5.58979 -180 0 0 -3.4,1.88 5.6929,5.61814 -180 0 0 -1.38,3.68 5.69405,5.61927 -180 0 0 1.58,3.89 5.65039,5.57618 -180 0 0 4.09,1.73 5.63488,5.56087 -180 0 0 2.65,-0.65 5.70325,5.62834 -180 0 0 3.03,-4.97 c 0,-1.17 0.39,-2.25 1.05,-3.12 a 5.22582,5.15719 0 0 1 4.19,-2.08 c 2.75,0 5,2.1 5.23,4.76 h -1.76 c -0.21,-1.7 -1.68,-3.03 -3.47,-3.03 z"
   class="st4"
   id="path38"
   inkscape:connector-curvature="0"
   style="fill:#417be9;stroke:none;stroke-width:6.375;stroke-linecap:butt" />
				</g>
				<g
   id="shape5656-15"
   transform="translate(23.1226,-8.57887)">
					<title
   id="title41">Sheet.5656</title>
					<path
   d="m 14.42,86.93 c -1.19,2.49 -3.75,4.2 -6.71,4.2 -4.1,0 -7.42,-3.29 -7.42,-7.36 a 7.44576,7.34797 0 0 1 2.16,-5.19 7.39578,7.29865 0 0 1 4.37,-2.11 v 1.75 a 5.66418,5.58979 -180 0 0 -3.4,1.87 5.69233,5.61757 -180 0 0 -1.39,3.68 5.69463,5.61984 -180 0 0 1.59,3.9 5.65039,5.57618 -180 0 0 4.09,1.73 5.63488,5.56087 -180 0 0 2.65,-0.65 5.70325,5.62834 -180 0 0 3.03,-4.98 5.25684,5.18781 0 0 1 1.05,-3.12 5.22582,5.15719 0 0 1 4.19,-2.07 c 2.65,0 4.84,1.95 5.19,4.48 0.02,0.09 0.03,0.18 0.03,0.28 H 22.1 c -0.22,-1.71 -1.69,-3.03 -3.47,-3.03 -1.93,0 -3.49,1.55 -3.49,3.46 a 7.45208,7.35421 0 0 1 -0.72,3.16 z M 7.01,76.26 a 0.287259,0.283487 0 0 1 0.096519,0.212615 L 7.11,78.22 A 0.287259,0.283487 0 0 1 6.867553,78.500652 5.37634,5.30574 -180 0 0 3.63,80.28 a 5.40507,5.33408 -180 0 0 -1.31,3.49 5.40622,5.33522 -180 0 0 1.5,3.7 5.36313,5.2927 -180 0 0 3.89,1.65 5.34704,5.27682 -180 0 0 2.52,-0.62 5.41599,5.34486 -180 0 0 2.87,-4.73 c 0,-1.23 0.41,-2.37 1.11,-3.29 a 5.51365,5.44124 0 0 1 4.42,-2.18 c 2.9,0 5.28,2.21 5.51,5.02 a 0.287259,0.283487 0 0 1 -0.286685,0.307299 L 22.1,83.62 A 0.287259,0.283487 0 0 1 21.815039,83.371099 C 21.62,81.81 20.27,80.59 18.63,80.59 c -1.77,0 -3.21,1.43 -3.21,3.18 0,1.16 -0.26,2.26 -0.72,3.24 -1.23,2.6 -3.9,4.4 -6.99,4.4 C 3.45,91.41 0,87.99 0,83.77 0,81.67 0.86,79.76 2.25,78.38 a 7.67844,7.5776 0 0 1 4.54,-2.19 0.287259,0.283487 0 0 1 0.225211,0.06917 z"
   class="st4"
   id="path43"
   inkscape:connector-curvature="0"
   style="fill:#417be9;stroke:none;stroke-width:6.375;stroke-linecap:butt" />
				</g>
				<g
   id="shape5657-17"
   transform="translate(39.2919,-10.8853)">
					<title
   id="title46">Sheet.5657</title>
					<path
   d="M 2.42,91.41 A 5.17124,5.10333 0 0 1 0,90.82 l 0.89,-1.57 a 3.44711,3.40184 -180 0 0 1.53,0.34 c 1.66,0 3.05,-1.16 3.45,-2.73 h 1.81 c -0.42,2.59 -2.62,4.55 -5.26,4.55 z"
   class="st5"
   id="path48"
   inkscape:connector-curvature="0"
   style="fill:#1453c8;stroke:none;stroke-width:6.375;stroke-linecap:butt" />
				</g>
				<g
   id="shape5658-19"
   transform="translate(39.0062,-10.6013)">
					<title
   id="title51">Sheet.5658</title>
					<path
   d="M 0.01,90.62 A 0.287259,0.283487 0 0 1 0.0341298,90.400581 L 0.93,88.82 A 0.287259,0.283487 0 0 1 1.308033,88.703204 3.1587,3.11722 -180 0 0 2.7,89.03 c 1.52,0 2.81,-1.07 3.17,-2.52 A 0.287259,0.283487 0 0 1 6.149216,86.29455 L 7.97,86.3 a 0.287259,0.283487 0 0 1 0.283812,0.328844 C 7.81,89.34 5.5,91.41 2.7,91.41 A 5.45908,5.38738 0 0 1 0.15,90.79 0.287259,0.283487 0 0 1 0.008668,90.619908 Z M 7.92,86.86 C 7.38,89.31 5.25,91.13 2.7,91.13 A 5.16779,5.09992 0 0 1 0.29,90.54 l 0.89,-1.58 a 3.44711,3.40184 -180 0 0 1.52,0.35 c 1.66,0 3.06,-1.16 3.45,-2.73 h 1.82 a 5.69118,5.61644 0 0 1 -0.05,0.28 z"
   class="st5"
   id="path53"
   inkscape:connector-curvature="0"
   style="fill:#1453c8;stroke:none;stroke-width:6.375;stroke-linecap:butt" />
				</g>
				<g
   id="shape5659-21"
   transform="translate(31.0952,-19.4801)">
					<title
   id="title56">Sheet.5659</title>
					<path
   d="M 4.33,91.41 A 5.83941,5.76272 -180 0 0 3.23,90.31 5.98304,5.90446 -180 0 0 0,89.11 v -1.74 c 1.31,0.07 2.54,0.45 3.6,1.07 0.78,0.46 1.47,1.05 2.04,1.74 z"
   class="st6"
   id="path58"
   inkscape:connector-curvature="0"
   style="fill:#88aef1;stroke:none;stroke-width:6.375;stroke-linecap:butt" />
				</g>
				<g
   id="shape5660-23"
   transform="translate(30.8074,-19.1971)">
					<title
   id="title61">Sheet.5660</title>
					<path
   d="M 4.6,91.41 A 0.287259,0.283487 0 0 1 4.393173,91.298306 5.5487,5.47583 -180 0 0 3.34,90.26 5.69578,5.62097 -180 0 0 0.27,89.11 0.287259,0.283487 0 0 1 0.002849,88.82708 L 0,87.09 A 0.287259,0.283487 0 0 1 0.302771,86.806513 C 1.66,86.88 2.93,87.27 4.03,87.92 4.84,88.39 5.56,89 6.15,89.72 A 0.287259,0.283487 0 0 1 6.12587,90.103841 L 4.82,91.34 a 0.287259,0.283487 0 0 1 -0.221764,0.07881 z m -0.16,-0.5 c 0.06,0.07 0.12,0.15 0.18,0.22 L 5.92,89.9 A 7.68361,7.5827 -180 0 0 3.88,88.16 7.83931,7.73635 -180 0 0 0.29,87.09 v 1.74 c 1.21,0.08 2.33,0.52 3.23,1.2 0.34,0.26 0.65,0.55 0.92,0.88 z"
   class="st6"
   id="path63"
   inkscape:connector-curvature="0"
   style="fill:#88aef1;stroke:none;stroke-width:6.375;stroke-linecap:butt" />
				</g>
			</g>
		</g>
	</g>
</svg>

<?xml version="1.0" encoding="UTF-8" standalone="no"?>
<!DOCTYPE svg PUBLIC "-//W3C//DTD SVG 1.1//EN" "http://www.w3.org/Graphics/SVG/1.1/DTD/svg11.dtd">
<!-- Generated by Microsoft Visio, SVG Export DevOps Starter.svg Page-1 -->
<svg xmlns="http://www.w3.org/2000/svg" xmlns:xlink="http://www.w3.org/1999/xlink" xmlns:ev="http://www.w3.org/2001/xml-events"
		width="0.944882in" height="1.26964in" viewBox="0 0 68.0315 91.4144" xml:space="preserve" color-interpolation-filters="sRGB"
		class="st7">
	<style type="text/css">
	<![CDATA[
		.st1 {fill:url(#grad0-6);stroke:none;stroke-linecap:butt;stroke-width:6.375}
		.st2 {fill:#ffffff;stroke:none;stroke-linecap:butt;stroke-width:6.375}
		.st3 {fill:url(#grad0-12);stroke:none;stroke-linecap:butt;stroke-width:6.375}
		.st4 {fill:#417be9;stroke:none;stroke-linecap:butt;stroke-width:6.375}
		.st5 {fill:#1453c8;stroke:none;stroke-linecap:butt;stroke-width:6.375}
		.st6 {fill:#88aef1;stroke:none;stroke-linecap:butt;stroke-width:6.375}
		.st7 {fill:none;fill-rule:evenodd;font-size:12px;overflow:visible;stroke-linecap:square;stroke-miterlimit:3}
	]]>
	</style>

	<defs id="Patterns_And_Gradients">
		<linearGradient id="grad0-6" x1="0" y1="0" x2="1" y2="0" gradientTransform="rotate(-90.793646945956 0.5 0.5)">
			<stop offset="0" stop-color="#2889e0" stop-opacity="1"/>
			<stop offset="1" stop-color="#50e6ff" stop-opacity="1"/>
		</linearGradient>
		<linearGradient id="grad0-12" x1="0" y1="0" x2="1" y2="0" gradientTransform="rotate(-119.69106579898 0.5 0.5)">
			<stop offset="0" stop-color="#c398e9" stop-opacity="1"/>
			<stop offset="1" stop-color="#704cb3" stop-opacity="1"/>
		</linearGradient>
	</defs>
	<g>
		<title>Page-1</title>
		<g id="group5531-1" transform="translate(5.66929,-34.0157)">
			<title>DevOps Starter</title>
			<g id="group5532-2">
				<title>Sheet.5532</title>
				<g id="shape5533-3" transform="translate(0,-13.0364)">
					<title>Sheet.5533</title>
					<path d="M55.79 81.12 C54.1 87.19 49.99 89.19 45.56 91.05 C45.25 91.18 44.53 91.41 43.4 91.41 L24.3 91.41 C20.7
								 91.41 15.21 91.36 12.66 91.33 C11.25 91.31 10.36 90.92 9.94 90.71 C4.58 88.08 1.41 83.81 0.8 78.42
								 C0.55 76.17 0 67.05 13.5 63.54 C18 55.18 22.95 53.87 29.25 53.43 C37.35 53.43 44.09 59.14 44.99
								 67.93 C49.49 68.81 56.69 73.2 55.79 81.12 Z" class="st1"/>
				</g>
				<g id="shape5534-7" transform="translate(18.5265,0)">
					<title>Sheet.5534</title>
					<path d="M33.89 74.69 C33.89 83.93 26.31 91.41 16.95 91.41 C7.59 91.41 0 83.93 0 74.69 C0 65.45 7.59 57.97 16.95
								 57.97 C26.3 57.97 33.89 65.45 33.89 74.69 Z" class="st2"/>
				</g>
				<g id="shape5535-9" transform="translate(18.5265,0)">
					<title>Sheet.5535</title>
					<path d="M16.95 89.21 C25.07 89.21 31.66 82.71 31.66 74.69 C31.66 66.67 25.07 60.17 16.95 60.17 C8.82 60.17 2.23
								 66.67 2.23 74.69 C2.23 82.71 8.82 89.21 16.95 89.21 ZM16.95 91.41 C26.3 91.41 33.89 83.93 33.89
								 74.69 C33.89 65.45 26.31 57.97 16.95 57.97 C7.59 57.97 0 65.45 0 74.69 C0 83.93 7.59 91.41 16.95
								 91.41 L16.95 91.41 Z" class="st3"/>
				</g>
				<g id="shape5536-13" transform="translate(23.4105,-8.86293)">
					<title>Sheet.5536</title>
					<path d="M18.34 80.59 C16.41 80.59 14.85 82.14 14.85 84.06 C14.85 85.17 14.6 86.23 14.15 87.18 C12.97 89.68 10.4
								 91.41 7.42 91.41 C3.32 91.41 0 88.12 0 84.06 A7.44576 7.34797 0 0 1 2.17 78.86 A7.39118 7.29411
								 0 0 1 6.53 76.75 L6.53 78.5 A5.66418 5.58979 -180 0 0 3.13 80.38 A5.6929 5.61814 -180 0 0 1.75 84.06
								 A5.69405 5.61927 -180 0 0 3.33 87.95 A5.65039 5.57618 -180 0 0 7.42 89.68 A5.63488 5.56087 -180
								 0 0 10.07 89.03 A5.70325 5.62834 -180 0 0 13.1 84.06 C13.1 82.89 13.49 81.81 14.15 80.94 A5.22582
								 5.15719 0 0 1 18.34 78.86 C21.09 78.86 23.34 80.96 23.57 83.62 L21.81 83.62 C21.6 81.92 20.13 80.59
								 18.34 80.59 Z" class="st4"/>
				</g>
				<g id="shape5537-15" transform="translate(23.1226,-8.57887)">
					<title>Sheet.5537</title>
					<path d="M14.42 86.93 C13.23 89.42 10.67 91.13 7.71 91.13 C3.61 91.13 0.29 87.84 0.29 83.77 A7.44576 7.34797
								 0 0 1 2.45 78.58 A7.39578 7.29865 0 0 1 6.82 76.47 L6.82 78.22 A5.66418 5.58979 -180 0 0 3.42 80.09
								 A5.69233 5.61757 -180 0 0 2.03 83.77 A5.69463 5.61984 -180 0 0 3.62 87.67 A5.65039 5.57618 -180
								 0 0 7.71 89.4 A5.63488 5.56087 -180 0 0 10.36 88.75 A5.70325 5.62834 -180 0 0 13.39 83.77 A5.25684
								 5.18781 0 0 1 14.44 80.65 A5.22582 5.15719 0 0 1 18.63 78.58 C21.28 78.58 23.47 80.53 23.82 83.06
								 C23.84 83.15 23.85 83.24 23.85 83.34 L22.1 83.34 C21.88 81.63 20.41 80.31 18.63 80.31 C16.7 80.31
								 15.14 81.86 15.14 83.77 A7.45208 7.35421 0 0 1 14.42 86.93 L14.42 86.93 ZM7.01 76.26 a0.287259 0.283487
								 0 0 1 0.0965191 0.212615 L7.11 78.22 a0.287259 0.283487 0 0 1 -0.242447 0.280652 A5.37634 5.30574
								 -180 0 0 3.63 80.28 A5.40507 5.33408 -180 0 0 2.32 83.77 A5.40622 5.33522 -180 0 0 3.82 87.47 A5.36313
								 5.2927 -180 0 0 7.71 89.12 A5.34704 5.27682 -180 0 0 10.23 88.5 A5.41599 5.34486 -180 0 0 13.1 83.77
								 C13.1 82.54 13.51 81.4 14.21 80.48 A5.51365 5.44124 0 0 1 18.63 78.3 C21.53 78.3 23.91 80.51 24.14
								 83.32 a0.287259 0.283487 0 0 1 -0.286685 0.307299 L22.1 83.62 a0.287259 0.283487 0 0 1 -0.284961
								 -0.248901 C21.62 81.81 20.27 80.59 18.63 80.59 C16.86 80.59 15.42 82.02 15.42 83.77 C15.42 84.93
								 15.16 86.03 14.7 87.01 C13.47 89.61 10.8 91.41 7.71 91.41 C3.45 91.41 0 87.99 0 83.77 C0 81.67 0.86
								 79.76 2.25 78.38 A7.67844 7.5776 0 0 1 6.79 76.19 a0.287259 0.283487 0 0 1 0.225211 0.0691707 L7.01
								 76.26 Z" class="st4"/>
				</g>
				<g id="shape5538-17" transform="translate(39.2919,-10.8853)">
					<title>Sheet.5538</title>
					<path d="M2.42 91.41 A5.17124 5.10333 0 0 1 0 90.82 L0.89 89.25 A3.44711 3.40184 -180 0 0 2.42 89.59 C4.08 89.59
								 5.47 88.43 5.87 86.86 L7.68 86.86 C7.26 89.45 5.06 91.41 2.42 91.41 Z" class="st5"/>
				</g>
				<g id="shape5539-19" transform="translate(39.0062,-10.6013)">
					<title>Sheet.5539</title>
					<path d="M0.01 90.62 a0.287259 0.283487 0 0 1 0.0241298 -0.219419 L0.93 88.82 a0.287259 0.283487 0 0 1 0.378033
								 -0.116796 A3.1587 3.11722 -180 0 0 2.7 89.03 C4.22 89.03 5.51 87.96 5.87 86.51 a0.287259 0.283487
								 0 0 1 0.279216 -0.21545 L7.97 86.3 a0.287259 0.283487 0 0 1 0.283812 0.328844 C7.81 89.34 5.5 91.41
								 2.7 91.41 A5.45908 5.38738 0 0 1 0.15 90.79 a0.287259 0.283487 0 0 1 -0.141332 -0.170092 ZM7.92
								 86.86 C7.38 89.31 5.25 91.13 2.7 91.13 A5.16779 5.09992 0 0 1 0.29 90.54 L1.18 88.96 A3.44711 3.40184
								 -180 0 0 2.7 89.31 C4.36 89.31 5.76 88.15 6.15 86.58 L7.97 86.58 A5.69118 5.61644 0 0 1 7.92 86.86
								 Z" class="st5"/>
				</g>
				<g id="shape5540-21" transform="translate(31.0952,-19.4801)">
					<title>Sheet.5540</title>
					<path d="M4.33 91.41 A5.83941 5.76272 -180 0 0 3.23 90.31 A5.98304 5.90446 -180 0 0 0 89.11 L0 87.37 C1.31 87.44
								 2.54 87.82 3.6 88.44 C4.38 88.9 5.07 89.49 5.64 90.18 L4.33 91.41 Z" class="st6"/>
				</g>
				<g id="shape5541-23" transform="translate(30.8074,-19.1971)">
					<title>Sheet.5541</title>
					<path d="M4.6 91.41 a0.287259 0.283487 0 0 1 -0.206827 -0.111694 A5.5487 5.47583 -180 0 0 3.34 90.26 A5.69578
								 5.62097 -180 0 0 0.27 89.11 a0.287259 0.283487 0 0 1 -0.267151 -0.28292 L0 87.09 a0.287259 0.283487
								 0 0 1 0.302771 -0.283487 C1.66 86.88 2.93 87.27 4.03 87.92 C4.84 88.39 5.56 89 6.15 89.72 a0.287259
								 0.283487 0 0 1 -0.0241298 0.383841 L4.82 91.34 a0.287259 0.283487 0 0 1 -0.221764 0.0788093 L4.6
								 91.41 ZM4.44 90.91 C4.5 90.98 4.56 91.06 4.62 91.13 L5.92 89.9 A7.68361 7.5827 -180 0 0 3.88 88.16
								 A7.83931 7.73635 -180 0 0 0.29 87.09 L0.29 88.83 C1.5 88.91 2.62 89.35 3.52 90.03 C3.86 90.29 4.17
								 90.58 4.44 90.91 L4.44 90.91 Z" class="st6"/>
				</g>
			</g>
		</g>
	</g>
</svg>
